Sweet-Rainbow/icons/matlab.svg

<?xml version="1.0" encoding="UTF-8" standalone="no"?>
<!-- Generator: Gravit.io -->

<svg
   xmlns:dc="http://purl.org/dc/elements/1.1/"
   xmlns:cc="http://creativecommons.org/ns#"
   xmlns:rdf="http://www.w3.org/1999/02/22-rdf-syntax-ns#"
   xmlns:svg="http://www.w3.org/2000/svg"
   xmlns="http://www.w3.org/2000/svg"
   xmlns:sodipodi="http://sodipodi.sourceforge.net/DTD/sodipodi-0.dtd"
   xmlns:inkscape="http://www.inkscape.org/namespaces/inkscape"
   style="isolation:isolate"
   viewBox="0 0 36 36"
   width="48"
   height="48"
   version="1.1"
   id="svg16"
   sodipodi:docname="matlab.svg"
   inkscape:version="0.92.4 (5da689c313, 2019-01-14)">
  <metadata
     id="metadata22">
    <rdf:RDF>
      <cc:Work
         rdf:about="">
        <dc:format>image/svg+xml</dc:format>
        <dc:type
           rdf:resource="http://purl.org/dc/dcmitype/StillImage" />
        <dc:title></dc:title>
      </cc:Work>
    </rdf:RDF>
  </metadata>
  <defs
     id="defs20" />
  <sodipodi:namedview
     pagecolor="#ffffff"
     bordercolor="#666666"
     borderopacity="1"
     objecttolerance="10"
     gridtolerance="10"
     guidetolerance="10"
     inkscape:pageopacity="0"
     inkscape:pageshadow="2"
     inkscape:window-width="640"
     inkscape:window-height="480"
     id="namedview18"
     showgrid="false"
     inkscape:zoom="29.365243"
     inkscape:cx="25.325443"
     inkscape:cy="32"
     inkscape:current-layer="svg16"
     units="px" />
  <linearGradient
     id="_lgradient_38"
     x1="0.67180997"
     y1="0.020570019"
     x2="0.47600845"
     y2="1.3813523"
     gradientTransform="matrix(34.351,0,0,32.001,7.649,1.17)"
     gradientUnits="userSpaceOnUse">
    <stop
       offset="0%"
       stop-opacity="1"
       style="stop-color:rgb(26,108,255)"
       id="stop2" />
    <stop
       offset="100%"
       stop-opacity="1"
       style="stop-color:rgb(197,34,255)"
       id="stop4" />
  </linearGradient>
  <linearGradient
     id="_lgradient_39"
     x1="0.69343787"
     y1="-0.39749092"
     x2="0.42214948"
     y2="0.96016449"
     gradientTransform="matrix(44.849,0,0,31.12,2.15,14.37)"
     gradientUnits="userSpaceOnUse">
    <stop
       offset="0%"
       stop-opacity="1"
       style="stop-color:rgb(26,108,255)"
       id="stop9" />
    <stop
       offset="100%"
       stop-opacity="1"
       style="stop-color:rgb(197,34,255)"
       id="stop11" />
  </linearGradient>
  <g
     id="g831"
     transform="matrix(0.80269321,0,0,0.80269321,-1.7257903,-0.72677295)">
    <path
       id="path7"
       d="m 11.76,29.13 1.12,-0.8 c 0.01,0 0.01,-0.01 0.02,-0.01 1.08,-0.75 2.14,-1.52 3.18,-2.32 0.96,-0.74 1.86,-1.54 2.7,-2.41 0.85,-0.89 1.61,-1.87 2.26,-2.92 0.76,-1.25 1.39,-2.58 1.88,-3.96 0.64,-1.8 1.23,-3.61 1.75,-5.45 0.35,-1.23 0.67,-2.46 0.96,-3.71 0.14,-0.6 0.29,-1.2 0.45,-1.8 0.15,-0.55 0.32,-1.1 0.53,-1.63 0.23,-0.56 0.58,-1.06 1.03,-1.47 0.4,-0.36 0.86,-0.66 1.35,-0.88 0.94,-0.41 1.95,-0.61 2.98,-0.6 1.03,-0.01 2.05,0.2 3,0.6 1.07,0.45 1.97,1.24 2.55,2.24 0.79,1.42 1.45,2.92 1.95,4.47 0.32,1.02 0.58,2.05 0.8,3.1 0.28,1.37 0.52,2.75 0.71,4.14 L 42,21 37.61,19 37.02,16.28 C 36.84,14.97 36.61,13.67 36.35,12.38 36.16,11.47 35.93,10.57 35.66,9.69 35.24,8.41 34.7,7.17 34.04,6 33.9,5.75 33.68,5.56 33.42,5.46 32.96,5.26 32.46,5.16 31.96,5.17 31.49,5.16 31.03,5.25 30.61,5.43 c -0.11,0.05 -0.2,0.11 -0.28,0.19 -0.01,0 -0.01,0 -0.01,0 C 30.17,6 30.05,6.39 29.95,6.78 29.8,7.34 29.66,7.9 29.52,8.47 c -0.3,1.3 -0.64,2.59 -1,3.88 -0.54,1.92 -1.16,3.82 -1.84,5.7 -0.57,1.64 -1.32,3.22 -2.23,4.71 -0.8,1.3 -1.73,2.5 -2.79,3.6 -0.98,1.01 -2.03,1.95 -3.14,2.81 -1.09,0.84 -2.2,1.65 -3.33,2.43 l -1.22,0.86 c -0.02,0.01 -0.03,0.02 -0.05,0.03 -0.69,0.46 -1.5,0.7 -2.32,0.68 -0.42,0 -0.84,-0.07 -1.23,-0.2 C 10.06,32.85 9.77,32.68 9.51,32.46 9.34,32.33 9.17,32.18 9.01,32.03 8.59,31.64 8.18,31.25 7.77,30.84 c -0.73,-0.71 2.04,-3.59 2.8,-2.85 0.38,0.38 0.77,0.75 1.16,1.11 0.01,0.01 0.02,0.02 0.03,0.03 z"
       style="fill:url(#_lgradient_38)"
       inkscape:connector-curvature="0" />
    <path
       id="path14"
       d="M 40.345,28.651 C 40.181,28.587 40.016,28.526 39.85,28.47 39.13,28.23 38.38,28.1 37.61,28.1 c -1.64,0 -3.23,0.59 -4.48,1.66 -0.18,0.17 -0.36,0.35 -0.52,0.55 -0.16,0.19 -0.32,0.39 -0.47,0.59 -0.42,0.55 -0.84,1.1 -1.25,1.66 -0.75,1.01 -1.5,2.01 -2.27,3.01 -0.81,1.05 -1.66,2.08 -2.55,3.08 -0.7,0.83 -1.48,1.58 -2.32,2.27 -0.12,0.1 -0.24,0.18 -0.36,0.27 -0.26,-0.94 -0.57,-1.86 -0.93,-2.77 -0.43,-1.04 -0.92,-2.06 -1.49,-3.04 -0.59,-1.03 -1.26,-2.03 -1.99,-2.97 -0.79,-1.02 -1.65,-1.99 -2.56,-2.91 l -1.41,-1.41 -2.83,2.82 1.41,1.42 c 0.79,0.8 1.54,1.64 2.23,2.53 0.62,0.8 1.18,1.64 1.69,2.52 0.47,0.82 0.89,1.67 1.24,2.55 0.34,0.84 0.63,1.71 0.85,2.59 0.15,0.74 0.51,1.43 1.02,2 0.6,0.63 1.44,0.98 2.32,0.97 0.65,-0.03 1.29,-0.2 1.86,-0.5 0.53,-0.27 1.02,-0.6 1.48,-0.97 1.01,-0.83 1.95,-1.75 2.81,-2.74 0.93,-1.06 1.83,-2.15 2.7,-3.27 0.78,-1.02 1.56,-2.04 2.32,-3.08 0.4,-0.53 0.8,-1.07 1.2,-1.59 0.13,-0.17 0.27,-0.34 0.4,-0.5 0.02,-0.03 0.05,-0.06 0.07,-0.08 0.51,-0.43 1.16,-0.66 1.82,-0.66 0.33,0 0.66,0.06 0.97,0.16 0.45,0.16 0.88,0.38 1.27,0.66 0.59,0.42 1.12,0.92 1.6,1.47 0.68,0.8 1.3,1.67 1.84,2.58 v 0 c 0.557,0.949 1.783,1.265 2.735,0.705 v 0 c 0.952,-0.56 1.268,-1.786 0.705,-2.735 v 0 C 46.593,34.723 46.462,34.508 46.329,34.294 45.225,31.34 44.226,27.736 43.34,24.94 42.84,23.39 42.39,21.83 41.97,20.25 41.63,18.96 41.34,17.66 41.11,16.34 L 40,14.37 37.17,14.937 v 2.083 c 0.214,1.424 0.514,2.824 0.94,4.26 0.43,1.63 0.9,3.26 1.42,4.87 0.265,0.836 0.54,1.669 0.815,2.501 z M 9.39,27.03 12,29 8.47,31.41 6.9,30.17 3.23,27.26 C 2.56,26.76 2.15,25.97 2.15,25.13 2.18,24.09 2.84,23.16 3.81,22.78 L 14.1,18.2 v 0 c 1.004,-0.453 2.185,0 2.635,1.01 v 0 c 0.45,1.01 -0.005,2.193 -1.015,2.64 v 0 L 8.393,25.113 C 7.889,25.338 7.832,25.798 8.264,26.14 Z"
       style="fill:url(#_lgradient_39);fill-rule:evenodd"
       inkscape:connector-curvature="0" />
  </g>
</svg>

<?xml version="1.0" encoding="UTF-8" standalone="no"?><!-- Generator: Gravit.io --><svg xmlns="http://www.w3.org/2000/svg" xmlns:xlink="http://www.w3.org/1999/xlink" style="isolation:isolate" viewBox="0 0 48 48" width="48pt" height="48pt"><linearGradient id="_lgradient_38" x1="0.6718099850460906" y1="0.020570018975650584" x2="0.47600843659372605" y2="1.3813522760361143" gradientTransform="matrix(34.351,0,0,32.001,7.649,1.17)" gradientUnits="userSpaceOnUse"><stop offset="0%" stop-opacity="1" style="stop-color:rgb(26,108,255)"/><stop offset="100%" stop-opacity="1" style="stop-color:rgb(197,34,255)"/></linearGradient><path d=" M 11.76 29.13 L 12.88 28.33 C 12.89 28.33 12.89 28.32 12.9 28.32 C 13.98 27.57 15.04 26.8 16.08 26 C 17.04 25.26 17.94 24.46 18.78 23.59 C 19.63 22.7 20.39 21.72 21.04 20.67 C 21.8 19.42 22.43 18.09 22.92 16.71 C 23.56 14.91 24.15 13.1 24.67 11.26 C 25.02 10.03 25.34 8.8 25.63 7.55 C 25.77 6.95 25.92 6.35 26.08 5.75 C 26.23 5.2 26.4 4.65 26.61 4.12 C 26.84 3.56 27.19 3.06 27.64 2.65 C 28.04 2.29 28.5 1.99 28.99 1.77 C 29.93 1.36 30.94 1.16 31.97 1.17 C 33 1.16 34.02 1.37 34.97 1.77 C 36.04 2.22 36.94 3.01 37.52 4.01 C 38.31 5.43 38.97 6.93 39.47 8.48 C 39.79 9.5 40.05 10.53 40.27 11.58 C 40.55 12.95 40.79 14.33 40.98 15.72 L 42 21 L 37.61 19 L 37.02 16.28 C 36.84 14.97 36.61 13.67 36.35 12.38 C 36.16 11.47 35.93 10.57 35.66 9.69 C 35.24 8.41 34.7 7.17 34.04 6 C 33.9 5.75 33.68 5.56 33.42 5.46 C 32.96 5.26 32.46 5.16 31.96 5.17 C 31.49 5.16 31.03 5.25 30.61 5.43 C 30.5 5.48 30.41 5.54 30.33 5.62 C 30.32 5.62 30.32 5.62 30.32 5.62 C 30.17 6 30.05 6.39 29.95 6.78 C 29.8 7.34 29.66 7.9 29.52 8.47 C 29.22 9.77 28.88 11.06 28.52 12.35 C 27.98 14.27 27.36 16.17 26.68 18.05 C 26.11 19.69 25.36 21.27 24.45 22.76 C 23.65 24.06 22.72 25.26 21.66 26.36 C 20.68 27.37 19.63 28.31 18.52 29.17 C 17.43 30.01 16.32 30.82 15.19 31.6 L 13.97 32.46 C 13.95 32.47 13.94 32.48 13.92 32.49 C 13.23 32.95 12.42 33.19 11.6 33.17 C 11.18 33.17 10.76 33.1 10.37 32.97 C 10.06 32.85 9.77 32.68 9.51 32.46 C 9.34 32.33 9.17 32.18 9.01 32.03 C 8.59 31.64 8.18 31.25 7.77 30.84 C 7.04 30.13 9.81 27.25 10.57 27.99 C 10.95 28.37 11.34 28.74 11.73 29.1 C 11.74 29.11 11.75 29.12 11.76 29.13 Z " fill="url(#_lgradient_38)"/><linearGradient id="_lgradient_39" x1="0.6934378833903174" y1="-0.3974909095115659" x2="0.42214949183450795" y2="0.9601645064179158" gradientTransform="matrix(44.849,0,0,31.12,2.15,14.37)" gradientUnits="userSpaceOnUse"><stop offset="0%" stop-opacity="1" style="stop-color:rgb(26,108,255)"/><stop offset="100%" stop-opacity="1" style="stop-color:rgb(197,34,255)"/></linearGradient><path d=" M 40.345 28.651 C 40.181 28.587 40.016 28.526 39.85 28.47 C 39.13 28.23 38.38 28.1 37.61 28.1 C 35.97 28.1 34.38 28.69 33.13 29.76 C 32.95 29.93 32.77 30.11 32.61 30.31 C 32.45 30.5 32.29 30.7 32.14 30.9 C 31.72 31.45 31.3 32 30.89 32.56 C 30.14 33.57 29.39 34.57 28.62 35.57 C 27.81 36.62 26.96 37.65 26.07 38.65 C 25.37 39.48 24.59 40.23 23.75 40.92 C 23.63 41.02 23.51 41.1 23.39 41.19 C 23.13 40.25 22.82 39.33 22.46 38.42 C 22.03 37.38 21.54 36.36 20.97 35.38 C 20.38 34.35 19.71 33.35 18.98 32.41 C 18.19 31.39 17.33 30.42 16.42 29.5 L 15.01 28.09 L 12.18 30.91 L 13.59 32.33 C 14.38 33.13 15.13 33.97 15.82 34.86 C 16.44 35.66 17 36.5 17.51 37.38 C 17.98 38.2 18.4 39.05 18.75 39.93 C 19.09 40.77 19.38 41.64 19.6 42.52 C 19.75 43.26 20.11 43.95 20.62 44.52 C 21.22 45.15 22.06 45.5 22.94 45.49 C 23.59 45.46 24.23 45.29 24.8 44.99 C 25.33 44.72 25.82 44.39 26.28 44.02 C 27.29 43.19 28.23 42.27 29.09 41.28 C 30.02 40.22 30.92 39.13 31.79 38.01 C 32.57 36.99 33.35 35.97 34.11 34.93 C 34.51 34.4 34.91 33.86 35.31 33.34 C 35.44 33.17 35.58 33 35.71 32.84 C 35.73 32.81 35.76 32.78 35.78 32.76 C 36.29 32.33 36.94 32.1 37.6 32.1 C 37.93 32.1 38.26 32.16 38.57 32.26 C 39.02 32.42 39.45 32.64 39.84 32.92 C 40.43 33.34 40.96 33.84 41.44 34.39 C 42.12 35.19 42.74 36.06 43.28 36.97 L 43.28 36.97 C 43.837 37.919 45.063 38.235 46.015 37.675 L 46.015 37.675 C 46.967 37.115 47.283 35.889 46.72 34.94 L 46.72 34.94 C 46.593 34.723 46.462 34.508 46.329 34.294 C 45.225 31.34 44.226 27.736 43.34 24.94 C 42.84 23.39 42.39 21.83 41.97 20.25 C 41.63 18.96 41.34 17.66 41.11 16.34 L 40 14.37 L 37.17 14.937 L 37.17 17.02 C 37.384 18.444 37.684 19.844 38.11 21.28 C 38.54 22.91 39.01 24.54 39.53 26.15 C 39.795 26.986 40.07 27.819 40.345 28.651 Z  M 9.39 27.03 L 12 29 L 8.47 31.41 L 6.9 30.17 L 3.23 27.26 C 2.56 26.76 2.15 25.97 2.15 25.13 C 2.18 24.09 2.84 23.16 3.81 22.78 L 14.1 18.2 L 14.1 18.2 C 15.104 17.747 16.285 18.2 16.735 19.21 L 16.735 19.21 C 17.185 20.22 16.73 21.403 15.72 21.85 L 15.72 21.85 L 8.393 25.113 C 7.889 25.338 7.832 25.798 8.264 26.14 L 9.39 27.03 Z " fill-rule="evenodd" fill="url(#_lgradient_39)"/></svg>
